X: 35
T:Y Bardd
M:C|
L:1/8
Q:200
C:Trad
S:Blodau'r Grug Collection Vol. 3
A:Wales
Z:brian_martin12345@yahoo.com
K:Dm
D2DEF2GA|BAGF E>DC2|d2dAB2AG|AGFG A4|DEFG AGAF|GFGE FEFD|
cFAc fAcf|agfe f4:||
f2 e/f/g fcAc|fcfg abag|f2ed cdcA|GFGA B4|A2dA BAGB|AGFAG2FE|
FEDF ED^CE|A2A2D4:||

